epam-assets/icon-sources/18/optional-skills.svg

<svg width="18" height="18" viewBox="0 0 18 18" fill="none" xmlns="http://www.w3.org/2000/svg">
<g id="18/optional-skills">
<g id="icon">
<path fill-rule="evenodd" clip-rule="evenodd" d="M8.99993 15.5C8.66993 15.5 8.38753 15.3826 8.15273 15.1478C7.91753 14.9126 7.79993 14.63 7.79993 14.3H10.1999C10.1999 14.63 10.0825 14.9126 9.84773 15.1478C9.61253 15.3826 9.32993 15.5 8.99993 15.5ZM5.10773 10.25C5.48275 10.8892 5.98015 11.4083 6.59993 11.8072V13.1H11.3999V11.8072C12.0197 11.4083 12.5173 10.8892 12.8927 10.25C13.2975 9.56 13.4999 8.81 13.4999 8C13.4999 6.75 13.0623 5.6876 12.1871 4.8128C11.3123 3.9376 10.2499 3.5 8.99993 3.5C7.74993 3.5 6.68753 3.9376 5.81273 4.8128C4.93753 5.6876 4.49993 6.75 4.49993 8C4.49993 8.81 4.70253 9.56 5.10773 10.25ZM8.99993 11.75H8.43743V9.35H6.74993L8.99993 5.75H9.56243V8.15H11.2499L8.99993 11.75Z" fill="#6C6F80"/>
<path d="M8.62493 0.5H9.37493V2.75H8.62493V0.5Z" fill="#6C6F80"/>
<path d="M13.5908 2L14.1211 2.53033L12.5301 4.12132L11.9998 3.59099L13.5908 2Z" fill="#6C6F80"/>
<path d="M4.28021 2L3.74988 2.53033L5.34087 4.12132L5.8712 3.59099L4.28021 2Z" fill="#6C6F80"/>
</g>
</g>
</svg>

<svg xmlns="http://www.w3.org/2000/svg" width="18" height="18" fill="none" viewBox="0 0 18 18">
  <path fill="#6C6F80" fill-rule="evenodd" d="M9 15.5c-.33 0-.612-.117-.847-.352A1.156 1.156 0 0 1 7.8 14.3h2.4c0 .33-.117.613-.352.848A1.157 1.157 0 0 1 9 15.5Zm-3.892-5.25c.375.64.872 1.158 1.492 1.557V13.1h4.8v-1.293a4.59 4.59 0 0 0 1.493-1.557c.404-.69.607-1.44.607-2.25 0-1.25-.438-2.312-1.313-3.187S10.25 3.5 9 3.5c-1.25 0-2.312.438-3.187 1.313S4.5 6.75 4.5 8c0 .81.203 1.56.608 2.25ZM9 11.75h-.563v-2.4H6.75L9 5.75h.562v2.4h1.688L9 11.75Z" clip-rule="evenodd"/>
  <path fill="#6C6F80" d="M8.625.5h.75v2.25h-.75V.5ZM13.59 2l.531.53-1.59 1.591-.531-.53L13.59 2ZM4.28 2l-.53.53 1.59 1.591.531-.53L4.281 2Z"/>
</svg>
